X: 205
T: Bak Bahta da İkbale de
C: Cevdet Çağla
O: Turkey
F: http://compmusic.upf.edu/node/140
N: acemkurdi--sarki--aksak--hatay--cevdet_cagla
N: makam= acemkurdi
N: form= sarki
N: usul= aksak = 9/8
M: 9/8
L: 1/16
K: C _B   
Q: 1/4=144
%%MIDI tuningsystem comma53
f4 z2ef a2g2 f2e2 d2 | e4z2 def2 e2d2 c2B2  | \
w:  ARANAĞME  |   | 
d4 z2cd _e2d2 c2B2 A2 | 
w:   | 
B4z2 ABd2 c2B2 A2B2  | G12 c4 BA | A12c2 d2e2  | \
w:   |   |   | 
f4 c4 d2e2 f2g2 a2 | 
w:  Bak  bah ta  da  ik  | 
b2 aga2 gfg2 fef2 edc=B  | c4 d2e2 f2g2 a2f2 g2 | 
w:  ba *  *  le  de  *  nûr  *  *  in  |  *  di  Ha tay  | 
a6 e2f2 d2c3ABG  | A6c2 d2e2 f4 z2 | \
w:  da   SAZ  |   | 
f4c4d2 e2f2 g2a2  | 
w:  Bak  bah ta  da  ik  | 
b2ag a2gf g2fe f2ed c=B | c4d2 e2f2 g2a2 f2g2  | 
w:  ba *  *  le  de  *  nûr  *  *  in  |  *  di  Ha tay  | 
f6c2 d2e2 f2e2 gf | f6 gfe2 f2g4z2  | \
w:  da   SAZ  |   | 
f3g g4 _7/8a2gf e_7/8dc_2/4B c2 | 
w:  Kör *  fez de  sa *  bah   | 
_3/4d4e2 f2ed c_2/4Bc4_BA  | A4 A2B2 B2A2 G2A2 BA | \
w:  et ti  o  ay  *  *  *  yüz  |  *  lü  de  ay  | 
A6 dcB2 A2G2 A2BA  | 
w:  da   SAZ  | 
A6gf e2f2 g4 z2 | f3gg4_7/8a2 gfe_7/8d c_2/4Bc2  | \
w:   |  Kör *  fez de  sa *  bah   | 
_3/4d4 e2f2 edc_2/4B c4 _BA | 
w:  et ti  o  ay  *  *  *  yüz  | 
A4A2 B2B2 A2G2 A2BA  | A6dc B2A2 G2A2 BA | \
w:  *  lü  de  ay  |  da   SAZ  | 
A6 agf2 g2a4z2  | 
w:   | 
g3a a3_2/4b c'2d'2 c'2_b2 a2 | a3gg2 aggf fef4z2  | \
w:  Sen  *  söy *  le  gü zel   |  çal *  ma ya  *  fer   | 
g3a a2a2 a2f2 g2a2 {c'}ba | 
w:  kal *  ma dı  yay  | 
a6 e2f2 d2c3ABG  | A6ag f2g2 a4 z2 | \
w:  da   SAZ  |   | 
g3aa3_2/4bc'2 d'2c'2 _b2a2  | 
w:  Sen  *  söy *  le  gü zel   | 
a3g g2ag gffe f4 z2 | c4d2 e2f2 g2a2 f2g2  | \
w:  çal *  ma ya  *  fer   |  kal ma dı  yay  | 
f6c2 d2e2 f2e2 gf | 
w:  da   SAZ  | 
f6 gfe2 f2g4z2  | f3g g4 _7/8a2gf e_7/8dc_2/4B c2 | \
w:   |  Kör *  fez de  sa *  bah   | 
_3/4d4e2 f2ed c_2/4Bc4_BA  | 
w:  et ti  o  ay  *  *  *  yüz  | 
A4 A2B2 B2A2 G2A2 BA | A6 dcB2 A2G2 A2BA  | \
w:  *  lü  de  ay  |  da   SAZ  | 
A6gf e2f2 g4 z2 | 
w:   | 
f3gg4_7/8a2 gfe_7/8d c_2/4Bc2  | _3/4d4 e2f2 edc_2/4B c4 _BA | 
w:  Kör *  fez de  sa *  bah   |  et ti  o  ay  *  *  *  yüz  | 
A4A2 B2B2 A2G2 A2BA  | A6dc B2A2 G2A2 BA | \
w:  *  lü  de  ay  |  da   SAZ KARAR  | 
A12z6  | |


